X:1
T:Bromham, 10.10.10.10
T:Bromham, 10.10.10.10
T:Timothy Richard Matthews, 1870
T:Public Domain Courtesy of the Cyber Hymnal™
C:Timothy Richard Matthews, 1870
Z:Public Domain
Z:Courtesy of the Cyber Hymnal™
%%score ( 1 2 ) ( 3 4 )
L:1/8
Q:1/4=140
M:3/4
K:G
V:1 treble 
V:2 treble 
V:3 bass 
V:4 bass 
V:1
 [B,G]2 [DF]2 [CE]2 | [B,D]2 [B,G]2 [DB]2 | [EA]2 [DG]2 [FA]2 | [GB]6 | [GB]2 [FA]2 G2 | %5
 [Dd]2 [DB]2 [EG]2 | [DF]2 [^CG]2 [CE]2 | D6 | D2 [^CE]2 [=CF]2 | [B,G]2 D2 [DB]2 | %10
 [Cc]2 [DA]2 [Dd]2 | [DB]6 | [Dd]2 [DB]2 [DG]2 | [Ee]2 [Ec]2 [EA]2 | [DG]2 [DA]2 [DF]2 | [DG]6 |] %16
V:2
 x6 | x6 | x6 | x6 | x4 G2 | x6 | x6 | D6 | D2 x4 | x2 D2 x2 | x6 | x6 | x6 | x6 | x6 | x6 |] %16
V:3
 [G,,G,]2 [B,,G,]2 [C,G,]2 | G,2 [E,G,]2 [B,,G,]2 | [C,C]2 [D,B,]2 [D,D]2 | [G,,D]6 | %4
 [G,D]2 [G,C]2 [G,B,]2 | [F,A,]2 [G,B,]2 [E,B,]2 | [A,,A,]2 [A,,E,]2 [A,,G,]2 | [D,F,]6 | %8
 [D,F,]2 [D,G,]2 [D,A,]2 | [G,,G,]2 [G,B,]2 G,2 | [E,G,]2 [F,A,]2 [D,F,]2 | [A,,G,]6 | %12
 [B,,G,]2 [B,,G,]2 [B,,G,]2 | [C,G,]2 [C,A,]2 [C,C]2 | [D,B,]2 [D,C]2 [D,A,]2 | [G,,B,]6 |] %16
V:4
 x6 | G,2 x4 | x6 | x6 | x6 | x6 | x6 | x6 | x6 | x4 G,2 | x6 | x6 | x6 | x6 | x6 | x6 |] %16

